img/logos/forever.svg

<?xml version="1.0" encoding="UTF-8" standalone="no" ?>
<svg width="256px" height="127px" viewBox="0 0 256 127" version="1.1" xmlns="http://www.w3.org/2000/svg" xmlns:xlink="http://www.w3.org/1999/xlink" preserveAspectRatio="xMinYMin meet">
    <g>
        <path d="M0,63.2098765 C0,45.8856882 6.20393233,31.0196616 18.611797,18.611797 C31.0196616,6.20393233 45.8856882,0 63.2098765,0 C80.5340649,0 95.4000914,6.20393233 107.807956,18.611797 L128.175583,37.9259259 L148.54321,18.260631 C160.716964,6.086877 175.465935,0 192.790123,0 C209.880201,0 224.6877,6.20393233 237.21262,18.611797 C249.73754,31.0196616 256,45.8856882 256,63.2098765 C256,80.5340649 249.73754,95.4000914 237.21262,107.807956 C224.6877,120.215821 209.880201,126.419753 192.790123,126.419753 C175.465935,126.419753 160.599909,120.215821 148.192044,107.807956 L128.175583,88.4938272 L107.45679,108.159122 C95.2830361,120.332876 80.5340649,126.419753 63.2098765,126.419753 C45.8856882,126.419753 31.0196616,120.215821 18.611797,107.807956 C6.20393233,95.4000914 0,80.5340649 0,63.2098765 L0,63.2098765 Z M63.2098765,36.521262 C55.9524463,36.521262 49.6899863,39.1550069 44.4224966,44.4224966 C39.1550069,49.6899863 36.521262,55.9524463 36.521262,63.2098765 C36.521262,70.7014175 39.0964792,77.0224051 44.2469136,82.1728395 C49.397348,87.3232739 55.7183356,89.8984911 63.2098765,89.8984911 C70.7014175,89.8984911 77.0224051,87.3232739 82.1728395,82.1728395 L101.486968,63.2098765 L82.1728395,44.5980796 C76.7882945,39.2135345 70.4673068,36.521262 63.2098765,36.521262 L63.2098765,36.521262 Z M211.753086,82.1728395 C216.903521,77.0224051 219.478738,70.7014175 219.478738,63.2098765 C219.478738,55.7183356 216.903521,49.397348 211.753086,44.2469136 C206.602652,39.0964792 200.340192,36.521262 192.965706,36.521262 C185.591221,36.521262 179.328761,39.0964792 174.178326,44.2469136 L154.513032,63.2098765 L173.82716,81.8216735 C178.977595,86.9721079 185.298583,89.6058528 192.790123,89.7229081 C200.281664,89.8399634 206.602652,87.3232739 211.753086,82.1728395 L211.753086,82.1728395 Z" fill="#000000"></path>
    </g>
</svg>

<svg width="256" height="127" viewBox="0 0 256 127" xmlns="http://www.w3.org/2000/svg" preserveAspectRatio="xMinYMin meet"><path d="M0 63.21c0-17.324 6.204-32.19 18.612-44.598C31.02 6.204 45.886 0 63.21 0c17.324 0 32.19 6.204 44.598 18.612l20.368 19.314 20.367-19.665C160.717 6.088 175.466 0 192.79 0c17.09 0 31.898 6.204 44.423 18.612C249.738 31.02 256 45.886 256 63.21c0 17.324-6.262 32.19-18.787 44.598-12.525 12.408-27.333 18.612-44.423 18.612-17.324 0-32.19-6.204-44.598-18.612l-20.016-19.314-20.72 19.665c-12.173 12.173-26.922 18.26-44.246 18.26s-32.19-6.204-44.598-18.612C6.204 95.4 0 80.534 0 63.21zm63.21-26.69c-7.258 0-13.52 2.635-18.788 7.902-5.267 5.268-7.9 11.53-7.9 18.788 0 7.49 2.574 13.812 7.725 18.963 5.15 5.15 11.47 7.725 18.963 7.725 7.49 0 13.812-2.575 18.963-7.725l19.314-18.963-19.314-18.612c-5.385-5.384-11.706-8.077-18.963-8.077zm148.543 45.653c5.15-5.15 7.726-11.472 7.726-18.963 0-7.492-2.576-13.813-7.727-18.963-5.15-5.15-11.413-7.726-18.787-7.726-7.375 0-13.637 2.576-18.788 7.727L154.513 63.21l19.314 18.612c5.15 5.15 11.472 7.784 18.963 7.9 7.492.118 13.813-2.4 18.963-7.55z"/></svg>
